front/ioframe/img/icons/home-icon.svg

<?xml version="1.0" encoding="UTF-8" standalone="no"?>
<svg
   xmlns:dc="http://purl.org/dc/elements/1.1/"
   xmlns:cc="http://creativecommons.org/ns#"
   xmlns:rdf="http://www.w3.org/1999/02/22-rdf-syntax-ns#"
   xmlns:svg="http://www.w3.org/2000/svg"
   xmlns="http://www.w3.org/2000/svg"
   xmlns:sodipodi="http://sodipodi.sourceforge.net/DTD/sodipodi-0.dtd"
   xmlns:inkscape="http://www.inkscape.org/namespaces/inkscape"
   width="21"
   height="20"
   viewBox="0 0 21 20"
   id="svg2"
   version="1.1"
   inkscape:version="0.91 r13725"
   sodipodi:docname="home-icon.svg">
  <metadata
     id="metadata16">
    <rdf:RDF>
      <cc:Work
         rdf:about="">
        <dc:format>image/svg+xml</dc:format>
        <dc:type
           rdf:resource="http://purl.org/dc/dcmitype/StillImage" />
      </cc:Work>
    </rdf:RDF>
  </metadata>
  <sodipodi:namedview
     pagecolor="#ffffff"
     bordercolor="#666666"
     borderopacity="1"
     objecttolerance="10"
     gridtolerance="10"
     guidetolerance="10"
     inkscape:pageopacity="0"
     inkscape:pageshadow="2"
     inkscape:window-width="707"
     inkscape:window-height="480"
     id="namedview14"
     showgrid="false"
     inkscape:zoom="11.8"
     inkscape:cx="8.6730001"
     inkscape:cy="9.1949153"
     inkscape:window-x="2029"
     inkscape:window-y="82"
     inkscape:window-maximized="0"
     inkscape:current-layer="svg2" />
  <defs
     id="defs4">
    <style
       id="style6">.a{fill:#fff2db;stroke-linejoin:round;}.b,.c{stroke:none;}.c{fill:#d9b97e;}</style>
  </defs>
  <g
     class="a"
     id="g8"
     style="stroke:#004453;stroke-opacity:1;fill:#ecfbff;fill-opacity:1">
    <path
       class="b"
       d="M 8.091309547424316 19.49984741210938 L 4.318359851837158 19.49869346618652 L 4.318359851837158 9.599610328674316 L 4.318359851837158 9.099610328674316 L 3.818360090255737 9.099610328674316 L 1.287954568862915 9.099610328674316 L 10.50047492980957 0.6774691939353943 L 19.71213531494141 9.099610328674316 L 17.18506050109863 9.099610328674316 L 16.68506050109863 9.099610328674316 L 16.68506050109863 9.599610328674316 L 16.68506050109863 19.4976634979248 L 12.91112995147705 19.49843788146973 L 12.91112995147705 13.33349990844727 L 12.91112995147705 12.83349990844727 L 12.41112995147705 12.83349990844727 L 8.591309547424316 12.83349990844727 L 8.091309547424316 12.83349990844727 L 8.091309547424316 13.33349990844727 L 8.091309547424316 19.49984741210938 Z"
       id="path10"
       style="stroke:#004453;stroke-opacity:1;fill:#ecfbff;fill-opacity:1" />
    <path
       class="c"
       d="m 8.5913095,20 -9.794e-4,0 -4.77197,-0.0015 0,-10.3989307 L 0,9.5996103 10.50049,0 21,9.5996103 l -3.814939,0 0,10.3979507 -4.773931,9.8e-4 c -0.496127,-9.547117 -3.8198205,-10.8597739 -3.8198205,0 z"
       id="path12"
       style="fill:#ecfbff;stroke:#004453;stroke-opacity:1;fill-opacity:1"
       inkscape:connector-curvature="0"
       sodipodi:nodetypes="cccccccccccc" />
  </g>
</svg>

<?xml version="1.0" encoding="UTF-8" standalone="no"?>
<svg
   xmlns:dc="http://purl.org/dc/elements/1.1/"
   xmlns:cc="http://creativecommons.org/ns#"
   xmlns:rdf="http://www.w3.org/1999/02/22-rdf-syntax-ns#"
   xmlns:svg="http://www.w3.org/2000/svg"
   xmlns="http://www.w3.org/2000/svg"
   xmlns:sodipodi="http://sodipodi.sourceforge.net/DTD/sodipodi-0.dtd"
   xmlns:inkscape="http://www.inkscape.org/namespaces/inkscape"
   width="20.999996"
   height="20.000051"
   viewBox="0 0 20.999997 20.000052"
   id="svg2"
   version="1.1"
   inkscape:version="1.0.1 (3bc2e813f5, 2020-09-07)"
   sodipodi:docname="home-icon.svg">
  <metadata
     id="metadata16">
    <rdf:RDF>
      <cc:Work
         rdf:about="">
        <dc:format>image/svg+xml</dc:format>
        <dc:type
           rdf:resource="https://purl.org/dc/dcmitype/StillImage" />
      </cc:Work>
    </rdf:RDF>
  </metadata>
  <sodipodi:namedview
     pagecolor="#ffffff"
     bordercolor="#666666"
     borderopacity="1"
     objecttolerance="10"
     gridtolerance="10"
     guidetolerance="10"
     inkscape:pageopacity="0"
     inkscape:pageshadow="2"
     inkscape:window-width="1268"
     inkscape:window-height="1008"
     id="namedview14"
     showgrid="false"
     inkscape:zoom="9.5485057"
     inkscape:cx="15.336157"
     inkscape:cy="21.519891"
     inkscape:window-x="2029"
     inkscape:window-y="0"
     inkscape:window-maximized="0"
     inkscape:current-layer="svg2"
     inkscape:document-rotation="0" />
  <defs
     id="defs4">
    <style
       id="style6">.a{fill:#fff2db;stroke-linejoin:round;}.b,.c{stroke:none;}.c{fill:#d9b97e;}</style>
  </defs>
  <g
     class="a"
     id="g8"
     style="fill:#ecfbff;fill-opacity:1;stroke:#1c7786;stroke-linejoin:miter;stroke-opacity:1"
     transform="translate(-2.5798406e-6,4.4634161e-5)">
    <path
       class="b"
       d="m 8.0913095,19.499847 -3.7729496,-0.0012 v -9.8990827 -0.5 H 3.8183601 1.2879546 l 9.2125204,-8.42214111 9.21166,8.42214111 h -2.527074 -0.5 v 0.5 9.8980527 l -3.773931,7.75e-4 v -6.164938 -0.5 h -0.5 -3.8198205 -0.5 v 0.5 z"
       id="path10"
       style="fill:#ecfbff;fill-opacity:1;stroke:#1c7786;stroke-linejoin:miter;stroke-opacity:1" />
  </g>
</svg>
